X:180
T:Turniskey Lasses (r)
B:NFID.241
180turn_L
S:PT
Z:Robinson/Black
L:1/8
M:C
R:reel
Q:360
K:Em
B2BA G2AG|FADA FADA|B2BA GAB^c|dBA=c BGE2|
B2BA G2AG|FADA FADA|B2BA GAB^c|dBA=c BGE2:|
e2ge bege|defg afdf|e2ge bege|BdAc BGE2|
e2ge bege|defg afdf|gfed egfe|dBAc BGE2:|

%%%

